X:37
T:Soggy's
C:Seán Óg Graham
R:slip jig
M:9/8
L:1/8
K:Amaj
E2E cEB BAE | F2F BFA AFE | F2F BAB cef | a2f ecB BAF |
E2E cEB BAE | F2F B2c AFE | F2F BAB cef | a2f ecB A3 ::
D2D FGA AGF | G2G EGA BAG | A2e dec eBe | AGF EFG A3 |
D2D FGA AGF | G2  EGA BAG | Ace dec eBe | AGF EFG A3 :|
